!!!SOCIAL_FUNCTION:	dream songs
!!!PDT:	1913
!!!OTL: No_152_Around_the_Sky.krn
!!!REG: Great_Lakes
!!!LANG: Non-Tone
!!!LING_GROUP: Algonquin
**kern	**kern
*staff2	*staff1
=1-	=1-
*clefF4	*clefG2
*k[f#c#g#]	*k[f#c#g#]
*M2/4	*M2/4
12GG#^/	4f#/
12r	.
12GG#/	.
12GG#^/	8.f#/L
12r	.
12GG#/	.
.	16e/Jk
=2	=2
2r	8.c#/L
.	16c#/Jk
.	8.c#/L
.	16e/Jk
=3	=3
2r	8e/L
.	16e/L
.	16c#/JJ
.	8c#/L
.	8c#/J
=4	=4
2r	2c#/
=5	=5
2r	8c#/L
.	8e/J
.	8.e/L
.	16c#/Jk
*	*clefF4
=6	=6
2r	4A\
.	4F#\
=7||	=7||
*M3/4	*M3/4
2.r	16c#\LK
.	8c#\
.	16c#\Jk
.	4A\
.	8.F#\L
.	16A\Jk
=8||	=8||
*M2/4	*M2/4
2r	8.E\L
.	16E\Jk
.	8E\L
.	8E\J
=9	=9
2r	2E\
=10	=10
2r	16F#\LK
.	8.F#\J
.	8.F#\L
.	16E\Jk
=11	=11
2r	4C#/
.	8.C#/L
.	16E/Jk
=12	=12
2r	8.E\L
.	16E\Jk
.	8.C#/L
.	16C#/Jk
=13	=13
2r	4.C#/
.	8C#/
=14	=14
2r	2C#/
=15	=15
2r	12c#\L
.	12c#\
.	12e\J
.	8.e\L
.	16c#\Jk
=16	=16
2r	4A\
.	12F#\L
.	12F#\
.	12c#\J
=17||	=17||
*M3/4	*M3/4
2.r	4c#\
.	12c#\L
.	[12A\
.	12A\J]
.	8.F#\L
.	16A\Jk
=18||	=18||
*M2/4	*M2/4
2r	8.E\L
.	16E\Jk
.	8.E\L
.	16E\Jk
=19	=19
2r	2E\
=20	=20
2r	16F#\LK
.	8.F#\J
.	8.F#\L
.	16E\Jk
=21	=21
2r	8C#/L
.	8C#/J
.	8.C#/L
.	16E/Jk
=22	=22
2r	8.E\L
.	16E\Jk
.	8.C#/L
.	16C#/Jk
=23	=23
2r	2C#/
==	==
*-	*-
